X:126
T:Childgrove
C:Henry Playford, 1701
S:Colin Hume's website,  colinhume.com  - chords can also be printed below the stave.
Q:1/2=112
M:2/2
L:1/8
K:Dm
P:A
|: "Dm"A2d2 d2e2 | "Dm"f4 e2d2 | "Gm"g2f2 e2d2 | "Am"e3d cBA2 |\
"Dm"A2d2 d2e2 | "Dm"f4 "C"e2a2 | "Gm"g3f "A7"efed |1 "Dm"d8 :|2 "Dm"d6 ||
P:B
|: fg | "F"a2f2 f2a2 | "C"g2e2 e2g2 | "Dm"f2d2 defd | "A7"e2 A4 fg |\
"F"a2f2 f2a2 | "Gm"g3f efge | "Dm"f2ed "A7"e2d^c | "Dm"d6 :|

